wp-content/plugins/google-analytics-for-wordpress/lite/assets/vue/img/yir-icon-behavior.svg

<svg width="50" height="50" viewBox="0 0 50 50" fill="none" xmlns="http://www.w3.org/2000/svg">
    <ellipse cx="25" cy="25" rx="25" ry="25" fill="transparent"/>
    <path d="M26.4 17.8H24V19C24 19.3183 24.1264 19.6235 24.3515 19.8486C24.5765 20.0736 24.8817 20.2 25.2 20.2C25.5183 20.2 25.8235 20.0736 26.0485 19.8486C26.2736 19.6235 26.4 19.3183 26.4 19V17.8Z" fill="white"/>
    <path fill-rule="evenodd" clip-rule="evenodd" d="M18 13V15.4H19.2V19C19.2 20.5913 19.8321 22.1174 20.9574 23.2426C22.0826 24.3679 23.6087 25 25.2 25C23.6087 25 22.0826 25.6321 20.9574 26.7574C19.8321 27.8826 19.2 29.4087 19.2 31V34.6H18V37H32.4V34.6H31.2V31C31.2 29.4087 30.5679 27.8826 29.4426 26.7574C28.3174 25.6321 26.7913 25 25.2 25C25.9879 25 26.7681 24.8448 27.4961 24.5433C28.2241 24.2417 28.8855 23.7998 29.4426 23.2426C29.9998 22.6855 30.4417 22.0241 30.7433 21.2961C31.0448 20.5681 31.2 19.7879 31.2 19V15.4H32.4V13H18ZM21.6 15.4H28.8V19C28.8 19.9548 28.4207 20.8705 27.7456 21.5456C27.0705 22.2207 26.1548 22.6 25.2 22.6C24.2452 22.6 23.3295 22.2207 22.6544 21.5456C21.9793 20.8705 21.6 19.9548 21.6 19V15.4ZM21.6 31V34.6H28.8V31C28.8 30.0452 28.4207 29.1295 27.7456 28.4544C27.0705 27.7793 26.1548 27.4 25.2 27.4C24.2452 27.4 23.3295 27.7793 22.6544 28.4544C21.9793 29.1295 21.6 30.0452 21.6 31Z" fill="white"/>
</svg>

<svg width="50" height="50" fill="none" xmlns="http://www.w3.org/2000/svg"><circle cx="25" cy="25" fill="transparent" r="25"/><path d="M26.4 17.8H24V19a1.2 1.2 0 102.4 0v-1.2z" fill="#fff"/><path fill-rule="evenodd" clip-rule="evenodd" d="M18 13v2.4h1.2V19a6 6 0 006 6 6 6 0 00-6 6v3.6H18V37h14.4v-2.4h-1.2V31a6 6 0 00-6-6 6 6 0 006-6v-3.6h1.2V13H18zm3.6 2.4h7.2V19a3.6 3.6 0 11-7.2 0v-3.6zm0 15.6v3.6h7.2V31a3.6 3.6 0 10-7.2 0z" fill="#fff"/></svg>
